img/clock.svg

<?xml version="1.0" encoding="UTF-8" standalone="no"?>
<svg
   xmlns:dc="http://purl.org/dc/elements/1.1/"
   xmlns:cc="http://creativecommons.org/ns#"
   xmlns:rdf="http://www.w3.org/1999/02/22-rdf-syntax-ns#"
   xmlns:svg="http://www.w3.org/2000/svg"
   xmlns="http://www.w3.org/2000/svg"
   viewBox="0 0 120.06486 107.0125"
   height="107.0125"
   width="120.06486"
   id="svg2"
   version="1.1">
  <metadata
     id="metadata8">
    <rdf:RDF>
      <cc:Work
         rdf:about="">
        <dc:format>image/svg+xml</dc:format>
        <dc:type
           rdf:resource="http://purl.org/dc/dcmitype/StillImage" />
        <dc:title></dc:title>
      </cc:Work>
    </rdf:RDF>
  </metadata>
  <defs
     id="defs6" />
  <path
     id="path12"
     d="m 15,104.64934 c 0,-1.54553 1.72994,-3.98131 5,-7.040069 2.75,-2.572303 5,-4.878856 5,-5.125674 0,-0.246818 -1.93435,-3.041286 -4.29856,-6.209928 C 11.97822,74.58231 9.1532797,61.937609 12.1087,47.811723 14.59274,35.938917 24.74048,22.641934 35.90589,16.629359 42.31352,13.17885 53.77779,10.046777 60,10.046777 c 5.54399,0 17.1091,2.939914 22.56927,5.737231 20.30573,10.402882 30.89448,34.173918 24.54073,55.092267 -2.19626,7.230708 -5.14263,13.090251 -8.33435,16.574788 -2.74096,2.992429 -2.18211,4.736272 3.22435,10.061439 3.10764,3.060908 5,5.790608 5,7.212408 0,3.62247 -1.99698,2.7328 -8.63637,-3.84757 l -6.19018,-6.135154 -3.65107,2.256484 c -7.12834,4.40555 -13.18137,6.82731 -18.82769,7.53277 -3.14662,0.39315 -5.96673,1.11222 -6.26692,1.59793 -0.30019,0.48572 -1.84269,0.88313 -3.42777,0.88313 -1.58508,0 -3.12758,-0.39741 -3.42777,-0.88313 -0.30019,-0.48571 -3.0589,-1.19711 -6.13047,-1.58088 C 44.58892,103.81723 39.97979,102.06206 33.78561,98.205796 29.36377,95.452924 28.23383,95.865423 22.16676,102.44742 17.48883,107.52237 15,108.28704 15,104.64934 Z M 74.5,98.312871 C 87.03973,93.447039 94.17315,87.195548 99.60771,76.30934 c 3.7836,-7.579116 3.89206,-8.090044 3.88411,-18.296838 -0.008,-9.849619 -0.2138,-10.921579 -3.32787,-17.306132 C 95.92893,32.023599 88.30346,24.36112 79.49056,19.932634 72.81973,16.580538 72.43384,16.512502 60.09217,16.512502 c -12.23687,0 -12.78421,0.0939 -19.3983,3.327871 -8.8157,4.310453 -16.55758,12.053144 -20.86382,20.865997 -3.14267,6.431594 -3.32247,7.383942 -3.26737,17.306132 0.0544,9.7962 0.28208,10.963293 3.39666,17.411871 1.83609,3.80153 4.87842,8.616548 6.76073,10.70004 3.76564,4.168109 11.8333,9.679314 17.27993,11.804313 7.90857,3.085524 23.04691,3.276194 30.5,0.384145 z M 38.60374,65.42226 c -1.10629,-2.882953 0.41288,-3.409758 9.83283,-3.409758 6.49812,0 9.65009,-0.399495 10.41397,-1.31991 0.66027,-0.795574 1.20547,-7.449543 1.37244,-16.75 0.26339,-14.671085 0.3754,-15.43009 2.27702,-15.43009 1.91038,0 2.01278,0.761726 2.28518,17 0.15684,9.35 0.0358,18.0125 -0.26906,19.25 -0.53754,2.182251 -0.92681,2.25 -12.92818,2.25 -10.38867,0 -12.47187,-0.25514 -12.9842,-1.590242 z M 4.75,34.932403 C 3.7875,34.371798 3,33.246359 3,32.431427 3,31.616495 2.325,30.690711 1.5,30.374128 0.34198,29.929754 0,27.999032 0,21.905513 0,17.564357 0.3375,14.000398 0.75,13.985605 1.1625,13.970815 2.56793,12.226245 3.87319,10.108792 5.17844,7.991338 7.97884,5.1909418 10.09629,3.885689 12.21374,2.5804361 13.95831,1.175002 13.9731,0.762502 14.0154,-0.417268 31,-0.1431999 31,1.0372528 31,1.6008658 32.125,2.4897279 33.5,3.012502 38.55646,4.9349664 36.85092,7.7769054 21.91967,22.308786 14.17549,29.84583 7.53799,35.998818 7.16967,35.982093 6.80135,35.965373 5.7125,35.493008 4.75,34.932403 Z M 19.3356,18.890093 C 25.20102,13.322767 30,8.2028675 30,7.5125373 30,1.7211858 15.81902,3.0506287 9.4285697,9.4410734 3.20861,15.661031 1.91724,29.012502 7.5356,29.012502 c 0.62458,0 5.93458,-4.555084 11.8,-10.122409 z M 97.75,22.182454 C 83.2159,7.7098187 81.5612,4.8902286 86.5,3.012502 87.875,2.4897279 89,1.6008658 89,1.0372528 c 0,-1.5132146 15.71455,-1.3130945 17.68783,0.2252492 2.07579,1.6182622 10.44391,9.98638 12.06217,12.062174 1.89761,2.434124 1.68203,16.308061 -0.26501,17.055211 -0.83325,0.31975 -1.94711,1.717895 -2.47525,3.106989 -0.54969,1.445808 -1.71902,2.496083 -2.73499,2.456527 -0.97611,-0.038 -7.96225,-6.230431 -15.52475,-13.760949 z m 17.05,5.630048 c 1.99638,-1.996376 1.39786,-9.892578 -1.08168,-14.270429 C 108.64302,4.5811545 94.36254,0.1640427 90.57651,6.3840519 89.65846,7.8923011 91.11918,9.6837732 100.5,18.55455 c 6.05,5.721054 11.4725,10.414524 12.05,10.429934 0.5775,0.01541 1.59,-0.511982 2.25,-1.171982 z"
     style="fill:#4e4e4e" />
</svg>

<svg xmlns="http://www.w3.org/2000/svg" height="107.013" width="120.065"><path d="M15 104.65c0-1.546 1.73-3.982 5-7.04 2.75-2.573 5-4.88 5-5.126 0-.247-1.934-3.042-4.299-6.21-8.723-11.692-11.548-24.336-8.592-38.462 2.484-11.873 12.631-25.17 23.797-31.183 6.408-3.45 17.872-6.582 24.094-6.582 5.544 0 17.11 2.94 22.57 5.737 20.305 10.403 30.894 34.174 24.54 55.092-2.196 7.231-5.143 13.09-8.334 16.575-2.741 2.992-2.182 4.736 3.224 10.062 3.108 3.06 5 5.79 5 7.212 0 3.622-1.997 2.733-8.636-3.848l-6.19-6.135L88.521 97c-7.128 4.405-13.181 6.827-18.827 7.532-3.147.394-5.967 1.113-6.267 1.598-.3.486-1.843.883-3.428.883s-3.128-.397-3.428-.883c-.3-.485-3.059-1.197-6.13-1.58-5.853-.732-10.462-2.487-16.656-6.343-4.422-2.753-5.552-2.34-11.62 4.241-4.677 5.075-7.166 5.84-7.166 2.202zm59.5-6.337c12.54-4.866 19.673-11.117 25.108-22.004 3.783-7.579 3.892-8.09 3.884-18.296-.008-9.85-.214-10.922-3.328-17.307-4.235-8.682-11.86-16.345-20.673-20.773-6.671-3.352-7.057-3.42-19.399-3.42-12.237 0-12.784.093-19.398 3.327-8.816 4.31-16.558 12.054-20.864 20.866-3.143 6.432-3.322 7.384-3.267 17.307.054 9.796.282 10.963 3.396 17.411 1.836 3.802 4.879 8.617 6.761 10.7 3.766 4.169 11.833 9.68 17.28 11.805 7.909 3.085 23.047 3.276 30.5.384zm-35.896-32.89c-1.107-2.884.413-3.41 9.833-3.41 6.498 0 9.65-.4 10.414-1.32.66-.796 1.205-7.45 1.372-16.75.263-14.671.375-15.43 2.277-15.43 1.91 0 2.013.761 2.285 17 .157 9.35.036 18.012-.269 19.25-.537 2.182-.927 2.25-12.928 2.25-10.389 0-12.472-.256-12.984-1.59zM4.75 34.932C3.788 34.371 3 33.245 3 32.43c0-.815-.675-1.74-1.5-2.057C.342 29.93 0 28 0 21.906c0-4.342.338-7.906.75-7.92.413-.015 1.818-1.76 3.123-3.877C5.178 7.99 7.98 5.19 10.096 3.886c2.118-1.306 3.862-2.711 3.877-3.123C14.015-.417 31-.143 31 1.037c0 .564 1.125 1.453 2.5 1.976 5.056 1.922 3.35 4.764-11.58 19.296-7.745 7.537-14.382 13.69-14.75 13.673-.369-.017-1.457-.489-2.42-1.05zM19.336 18.89C25.2 13.323 30 8.203 30 7.513 30 1.72 15.819 3.05 9.429 9.44c-6.22 6.22-7.512 19.572-1.893 19.572.624 0 5.934-4.556 11.8-10.123zm78.414 3.292C83.216 7.71 81.561 4.89 86.5 3.012c1.375-.522 2.5-1.41 2.5-1.974 0-1.513 15.715-1.313 17.688.226 2.076 1.618 10.444 9.986 12.062 12.062 1.898 2.434 1.682 16.308-.265 17.055-.833.32-1.947 1.718-2.475 3.107-.55 1.446-1.72 2.496-2.735 2.456-.976-.038-7.963-6.23-15.525-13.76zm17.05 5.63c1.996-1.996 1.398-9.892-1.082-14.27-5.075-8.96-19.355-13.378-23.141-7.158-.919 1.508.542 3.3 9.923 12.17 6.05 5.722 11.473 10.415 12.05 10.43.578.016 1.59-.511 2.25-1.171z" fill="#4e4e4e"/></svg>
